static/images/clients/svg/eon.svg

<svg fill="none" height="149" viewBox="0 0 509 149" width="509" xmlns="http://www.w3.org/2000/svg"><path clip-rule="evenodd" d="m340.608 56.3509c0 15.3684-9.576 35.5599-16.496 48.9001-10.871 20.991-25.577 33.57-49.489 35.054-21.136 1.311-68.905 4.98-60.536-30.636 3.629-15.4183 11.693-29.0026 16.644-43.8917 16.636-33.1925 58.501-39.5199 91.761-31.2249 11.258 4.0958 17.25 9.5771 18.116 21.7983zm-55.823 1.473c-17.095 0-19.177 23.8636-22.387 36.6748-.806 4.8417-6.227 21.0623 2.504 21.0623 20.554 4.134 22.466-18.4112 25.923-33.4346 1.271-5.527 3.791-14.8 2.651-20.473 0-4.2197-5.884-3.5474-8.691-3.8293zm-117.682 1.0313c-2.109 40.4162-30.496 37.271-64.218 37.1165-12.8153-.0529-25.9209-.8836-38.5895-.8836-4.6748 4.7415 8.8596 19.1229 12.667 21.5039 12.9971 8.097 29.3055 4.62 39.7675-5.892 5.621 0 65.955-7.886 45.071 12.962-10.108 8.993-24.409 14.306-37.412 17.38-41.3719 9.784-130.73953-14-100.5976-72.319 20.6048-33.9123 65.2337-52.4561 102.0706-62.00778 3.43-.68608 6.819-1.21419 10.31-1.47304 26.209-1.9569 30.931 34.21412 30.931 53.61312zm-38.442-3.2406c0-3.6554.149-7.5208-1.031-11.0466-4.046-16.2975-46.4895 18.5046-51.5511 23.5662-.6354 1.2797-.1553.8831.7363 1.3257 14.0859 0 28.2048-.1476 42.2718-.1476 9.264-1.5289 9.574-4.3484 9.574-13.6978zm81.745 20.7676c-3.194 6.4316-2.48 14.8689-8.985 19.7363-8.896 6.6555-31.304 6.6735-26.365-9.426 4.676-15.3058 13.516-21.8155 29.605-17.822 3.925 1.3144 4.852 3.9141 5.745 7.5116zm280.141-19.884c0 4.1203-.864 8.3683-1.767 12.3724-5.317 23.5007-13.89 45.8594-21.505 68.4894-6.986 6.986-21.509 3.182-29.016-1.326-3.754-3.755 5.579-22.913 7.071-27.543 2.287-7.111 14.784-33.3327 4.271-38.589-3.382 0-6.072.4426-9.426 1.3255-31.463 11.0147-53.794 43.0415-76.443 65.6905-9.817 4.943-16.867 3.678-26.512-1.178-.957-.957-.493-2.478-.295-3.683 7.299-30.484 18.842-60.707 31.373-89.4037 1.971-5.8591 22.228-3.6881 27.248-1.1781 0 6.4892-.681 17.3801 8.69 17.3801 21.023-2.3171 72.536-47.9516 85.574-8.8373.37 2.2086.737 4.2105.737 6.4804z" fill="#282828" fill-rule="evenodd"/></svg>

<svg width="509" height="149" viewBox="0 0 509 149" fill="none" xmlns="http://www.w3.org/2000/svg">
<path fill-rule="evenodd" clip-rule="evenodd" d="M340.608 56.3509C340.608 71.7193 331.032 91.9108 324.112 105.251C313.241 126.242 298.535 138.821 274.623 140.305C253.487 141.616 205.718 145.285 214.087 109.669C217.716 94.2507 225.78 80.6664 230.731 65.7773C247.367 32.5848 289.232 26.2574 322.492 34.5524C333.75 38.6482 339.742 44.1295 340.608 56.3507L340.608 56.3509ZM284.785 57.8239C267.69 57.8239 265.608 81.6875 262.398 94.4987C261.592 99.3404 256.171 115.561 264.902 115.561C285.456 119.695 287.368 97.1498 290.825 82.1264C292.096 76.5994 294.616 67.3264 293.476 61.6534C293.476 57.4337 287.592 58.106 284.785 57.8241V57.8239ZM167.103 58.8552C164.994 99.2714 136.607 96.1262 102.885 95.9717C90.0697 95.9188 76.9641 95.0881 64.2955 95.0881C59.6207 99.8296 73.1551 114.211 76.9625 116.592C89.9596 124.689 106.268 121.212 116.73 110.7C122.351 110.7 182.685 102.814 161.801 123.662C151.693 132.655 137.392 137.968 124.389 141.042C83.0171 150.826 -6.35053 127.042 23.7914 68.723C44.3962 34.8107 89.0251 16.2669 125.862 6.71522C129.292 6.02914 132.681 5.50103 136.172 5.24218C162.381 3.28528 167.103 39.4563 167.103 58.8553L167.103 58.8552ZM128.661 55.6146C128.661 51.9592 128.81 48.0938 127.63 44.568C123.584 28.2705 81.1405 63.0726 76.0789 68.1342C75.4435 69.4139 75.9236 69.0173 76.8152 69.4599C90.9011 69.4599 105.02 69.3123 119.087 69.3123C128.351 67.7834 128.661 64.9639 128.661 55.6145V55.6146ZM210.406 76.3822C207.212 82.8138 207.926 91.2511 201.421 96.1185C192.525 102.774 170.117 102.792 175.056 86.6925C179.732 71.3867 188.572 64.877 204.661 68.8705C208.586 70.1849 209.513 72.7846 210.406 76.3821L210.406 76.3822ZM490.547 56.4982C490.547 60.6185 489.683 64.8665 488.78 68.8706C483.463 92.3713 474.89 114.73 467.275 137.36C460.289 144.346 445.766 140.542 438.259 136.034C434.505 132.279 443.838 113.121 445.33 108.491C447.617 101.38 460.114 75.1583 449.601 69.902C446.219 69.902 443.529 70.3446 440.175 71.2275C408.712 82.2422 386.381 114.269 363.732 136.918C353.915 141.861 346.865 140.596 337.22 135.74C336.263 134.783 336.727 133.262 336.925 132.057C344.224 101.573 355.767 71.35 368.298 42.6533C370.269 36.7942 390.526 38.9652 395.546 41.4752C395.546 47.9644 394.865 58.8553 404.236 58.8553C425.259 56.5382 476.772 10.9037 489.81 50.018C490.18 52.2266 490.547 54.2285 490.547 56.4984L490.547 56.4982Z" fill="#282828"/>
</svg>
